X: 1
T: O'Connor's Frolics
M: 4/4
L: 1/8
R: hornpipe
K: Dmaj
|:(3ABc|dAFA DAFA|eAfA eABc|dAFA DAFA|edef gece|
dAFA DAFA|eAfA eABc|dcdf edBc|dfec d2:|
|:(3cdc|BABc dcde|fefg fedc|BABc dcBA|G2 GA G2 F2|
BABc dcde|fefg fede|(3fgf (3efe (3ded (3cdc|Bdfd B2:|
